X: 11759
T: Elfin, The
R: waltz
M: 3/4
K: Cmajor
|:G2 c2 e2|f4 B2|c2 e2 a2|g6|G2 c2 e2|f4 B2|d2 c2 e2|G6|
G2 c2 e2|f4 B2|c2 e2 a2|g6|g2 f2 e2|^c2 d3 e|f2 G3 B|c6:|
|:g2 g2 a2|g2 g2 c'2|c'2 b2 a2|g4 ef|g2 g2 a2|g2 g2 c'2|c'2 b2 a2|g6|
G2 c2 e2|f4 B2|c2 e2 a2|g6|g2 f2 e2|^c2 d3 e|f2 G3 B|1 c6:|2 c4||
|:g2|e4 d2|c4 G2|B4 A2|f4 e2|e4 d2|A4 B2|d4 c2|G4 G2|
e4 d2|c4 G2|B4 A2|f4 e2|e4 d2|A4 B2|c6|1 c4:|2 c6||

